X: 1449
T: Nedendir Bu Dil-i Zârın Figanı
C: Şevki Bey
O: Turkey
F: http://compmusic.upf.edu/node/140
N: rast--sarki--kapali_curcuna--nedendir_bu--sevki_bey
N: makam= rast
N: form= sarki
N: usul= kapali_curcuna = 10/8
M: 10/8
L: 1/16
K: C _1/4B ^f  
Q: 1/4=216
%%MIDI tuningsystem comma53
d2c2 d2e4c2 e2d4z2  | B2A2 B2c4A2 c2B4z2  | \
w:  ARANAĞME  |   | 
G4 A2B2 c2d2 e2=f2 e2d2  | 
w:   | 
a2g2 =f2e2 d2e2 c2d6  | d2c2 d2e4c2 e2d4z2  | \
w:   |   | 
B2A2 B2c4A2 c2B6  | 
w:   | 
G4 g2=f2 e2d2 c2B2 A2G2  | A2B2 c2B2 A2G2 F2G6  | \
w:   |   | 
d2c2 d2e4c2 e2d4z2  | 
w:  ARANAĞME  | 
B2A2 B2c4A2 c2B4z2  | G4 A2B2 c2d2 e2=f2 e2d2  | \
w:   |   | 
a2g2 =f2e2 d2e2 c2d6  | 
w:   | 
d2c2 d2e4c2 e2d4z2  | B2A2 B2c4A2 c2B6  | \
w:   |   | 
G4 g2=f2 e2d2 c2B2 A2G2  | 
w:   | 
A2B2 c2B2 A2G2 F2G6  | z4 D2G4G4G2 A2B2  | \
w:   |  Ne den dir  bu   | 
c4 e2d2 c2B2 A2G6  | 
w:  dil_ i  *  *  zâ *  rın   | 
z4 c2d4d2 c2d6  | z4 B2c4c2 B2c6  | z4 f2g4g4=f2 e2d2  | \
w:  fi gâ nı   |  fi gâ nı   |  fi gâ nı   | 
e4 =f2e2 d2d2 ^2/4c2d6  | 
w:  fi gâ *  *  nı    | 
z4 e2d2 c2B2 A2G6  | z4 D2G4G4G2 A2B2  | \
w:  SAZ  |  Ne den dir  bu   | 
c4 e2d2 c2B2 A2G6  | 
w:  dil_ i  *  *  zâ *  rın   | 
z4 c2d4d2 c2d6  | z4 B2c4c2 B2c6  | z4 f2g4g4=f2 e2d2  | \
w:  fi gâ nı   |  fi gâ nı   |  fi gâ nı   | 
e4 =f2e2 d2d2 ^2/4c2d6  | 
w:  fi gâ *  *  nı    | 
z4 =f2e2 d2c2 d2e6  | z4 d2e4e2 a2e4d2  | \
w:  SAZ  |  Ha yâl  ey *  ler   | 
z4 d2c2 B2B2 A2A6  | 
w:  gö nül  *  geç *  miş   | 
z4 c2B2 A2A2 G2A6  | z4 D2G4G8-G2  | \
w:  za ma *  nı   |  za ma nı   | 
z4 d2e4d2 c2B2 A2G2  | A4 B2A2 G2G2 F2G6  | 
w:  za ma nı   |  za ma *  *  *  nı    | 
z4 =f2e2 d2c2 d2e6  | z4 d2e4e2 a2e4d2  | \
w:  SAZ  |  Ha yâl  ey *  ler   | 
z4 d2c2 B2B2 A2A6  | 
w:  gö nül  *  geç *  miş   | 
z4 c2B2 A2A2 G2A6  | z4 D2G4G8-G2  | \
w:  za ma *  nı   |  za ma nı   | 
z4 d2e4d2 c2B2 A2G2  | A4 B2A2 G2G2 F2G6  | 
w:  za ma nı   |  za ma *  *  *  nı    | 
z4 g2f2 e2f4g6  | z4 f2g4g2 f2g6  | z4 e2d2 c2B2 A2G6  | \
w:  SAZ  |  Ge çen  dem *  ler   |  de ğer  *  misl_ *  i   | 
z4 c2d4d2 c2d6  | 
w:  ci hâ nı   | 
z4 B2c4c2 B2c6  | z4 f2g4g4=f2 e2d2  | \
w:  ci hâ nı   |  ci hâ nı   | 
e4 =f2e2 d2d2 ^2/4c2d6  | z4 g2f2 e2f4g6  | 
w:  ci hâ *  *  nı    |  SAZ  | 
z4 f2g4g2 f2g6  | z4 e2d2 c2B2 A2G6  | \
w:  Ge çen  dem *  ler   |  de ğer  *  misl_ *  i   | 
z4 c2d4d2 c2d6  | z4 B2c4c2 B2c6  | 
w:  ci hâ nı   |  ci hâ nı   | 
z4 f2g4g4=f2 e2d2  | e4 =f2e2 d2d2 ^2/4c2d6  | \
w:  ci hâ nı   |  ci hâ *  *  nı    | 
z4 =f2e2 d2c2 d2e6  | 
w:  SAZ  | 
z4 d2e4e2 a2e4d2  | z4 d2c2 B2B2 A2A6  | \
w:  Ha yâl  ey *  ler   |  gö nül  *  geç *  miş   | 
z4 c2B2 A2A2 G2A6  | 
w:  za ma *  nı   | 
z4 D2G4G8-G2  | z4 d2e4d2 c2B2 A2G2  | \
w:  za ma nı   |  za ma nı   | 
A4 B2A2 G2G2 F2G6  | |


